X:1
T:James Gibb editions
T:Musica, die ganz lieblich Kunst - Jeep
T:#
%%score [ 1 2 3 4 ]
L:1/8
Q:1/4=100
M:2/2
K:C
V:1 treble nm="Soprano" snm="S"
V:2 treble nm="Alto" snm="A"
V:3 treble-8 nm="Tenor" snm="T"
V:4 bass nm="Bass" snm="B"
V:1
"^Musica, die ganz lieblich Kunst" G4 G2 G2 | c4 G4 | (A3 B c4- | %3
w: Mu- si- ca,|die ganz|lieb\- * *|
w: Viel ed- ler|Kraft sie|mit * *|
w: Drum wol- len|wir mit|hel\- * *|
 c2 B"^Johannes Jeep\n(1582-1644)"A B2) B2 | c2 c2 c3 B |[M:2/2] A4 G4 | G6 G2 | G4 z4 | z8 | %9
w: * * * * lich|Kunst, Mu- si- ca,|die ganz|lieb- lich|Kunst,||
w: * * * * sich|bringt, viel ed- ler|Kraft sie|mit sich|bringt,||
w: * * * * ler|Stimm, drum wol- len|wir mit|hel- ler|Stimm,||
 z2 c2 A3 B | c6 B2 | A4 B4 | z4 z2 B2 | c3 B A2 A2 | G8 | G8 | G4 G2 G2 | c4 G4 | (A3 B c4- | %19
w: ist eh- ren-|wert zu|hal- ten,|ist|eh- ren- wert zu|hal-|ten,|hat bil- lig|al- lent-|hal\- * *|
w: da- von wir|al- le|zeu- gen,|da-|von wir al- le|zeu-|gen,|ihr Lieb- lich-|keit durchs|Her\- * *|
w: Frau Mu- si-|ca stets|prei- sen,|Frau|Mu- si- ca stets|prei-|sen,|sie wird ge-|wiss- lich|im\- * *|
 c2 BA B2) B2 | c2 c2 c3 B | A4 G4 | G6 G2 | G4 z4 | z8 | z2 c2 A3 B | c6 B2 | A4 B4 | z4 z2 B2 | %29
w: * * * * ben|Gunst, hat bil- lig|al- lent-|hal- ben|Gunst,||bei Jun- gen|und bei|Al- ten,|bei|
w: * * * * ze|dringt, ihr Lieb- lich-|keit durchs|Her- ze|dringt||wer könnt ihr|Lob ver-|schwei- gen,|wer|
w: * * * * mer-|dar, sie wird ge-|wiss- lich|im- mer-|dar,||uns ih- re|Gunst er-|wei- sen,|uns|
 c3 B A2 A2 | G8 | G8 ||[M:3/4] c2 c2 c2 | B4 A2 ||[M:2/2] ^G4 A4 | ^G2 A2 B2 B2 | (BAGA B2) c2 | %37
w: Jun- gen und bei|Al-|ten,|Sie frischt das|Herz, welchs|lei- det|Schmerz, tut all Un-|mut * * * * ver-|
w: könnt ihr Lob ver-|schwei-|gen,|Es müsst doch|sein ein|har- ter|Stein, der sich nicht|liess * * * * be-|
w: ih- re Gunst er-|wei-|sen.|Stimmt an, stimmt|an den|Lob- ge-|sang lasst eu- re|Stimm' * * * * er-|
 (d2 e2 d4) | B2 c2 c2 B2 |[Q:1/4=98] (A3[Q:1/4=96] G[Q:1/4=95] F2)[Q:1/4=93] A2 |[Q:1/4=88] G8 | %41
w: trei\- * *|ben, lässt trau- rig|nie\- * * mand|blei-|
w: we\- * *|gen wenn sich Ge-|sang * * tut|re-|
w: kling\- * *|en und hört nicht|auf * * zu|sing-|
[Q:1/4=85] G8 |] %42
w: ben.|
w: gen.|
w: en!|
V:2
 z8 | C4 C2 C2 | F4 C4 | D6 D2 | E2 E2 E2 E2 |[M:2/2] F2 F2 (E2 DC | D6) D2 | E2 G2 E3 F | %8
w: |Mu- si- ca,|die ganz|lieb- lich|Kunst, Mu- si- ca,|die ganz lieb\- * *|* lich|Kunst, ist eh- ren-|
w: |Viel ed- ler|Kraft sie|mit sich|bringt, viel ed- ler|Kraft sie mit * *|* sich|bringt, da- von wir|
w: |Drum wol- len|wir mit|hel- ler|Stimm, drum wol- len|wir mit hel\- * *|* ler|Stimm, Frau Mu- si-|
 G2 G2 A4 | G2 G2 F4 | G2 A4 G2- | G2 ^F2 G4 | z4 z2 G2 | A2 G2 F4- | F2 E2 D4 | E8 | z8 | %17
w: wert zu hal-|ten, ist eh-|ren- wert zu|* hal- ten,|ist|eh- ren- wert|* zu hal-|ten,||
w: al- le zeu-|gen, da- von|wir al- le|* zeu- gen,|da-|von wir al\-|* le zeu-|gen,||
w: ca stets prei-|sen, Frau Mu-|si- ca stets|* prei- sen,|Frau|Mu- si- ca|* stets prei-|sen,||
 C4 C2 C2 | F4 C4 | D6 D2 | E2 E2 E2 E2 | F2 F2 (E2 !courtesy!=DC | D6 D2 | E2 G2 E3 F | G2 G2 A4 | %25
w: hat bil- lig|al- lent-|hal- ben|Gunst, hat bil- lig|al- lent- hal\- * *|* ben|Gunst, bei Jun- gen|und bei Al-|
w: ihr Lieb- lich-|keit durchs|Her- ze|dringt, ihr Lieb- lich-|keit durchs Her\- * *|* ze|dringt wer könnt ihr|Lob ver- schwei-|
w: sie wird ge-|wiss- lich|im- mer-|dar, sie wird ge-|wiss- lich im\- * *|* mer-|dar, uns ih- re|Gunst er- wei-|
 G2 G2 F4 | G2 A4 G2- | G2 ^F2 G4 | z4 z2 G2 | A2 G2 F4- | F2 E2 D4 | E8 ||[M:3/4] G2 G2 G2 | %33
w: ten, bei Jun-|gen und bei|* Al- ten,|bei|Jun- gen und|* bei Al-|ten,|Sie frischt das|
w: gen, wer könnt|ihr Lob ver\-|* schwei- gen,|wer|könnt ihr Lob|* ver- schwei-|gen,|Es müsst doch|
w: sen, uns ih-|re Gunst er\-|* wei- sen,|uns|ih- re Gunst|* er- wei-|sen.|Stimmt an, stimmt|
 G4 E2 ||[M:2/2] E4 D4 | D2 ^F2 G2 G2 | GABA G2) G2 | (ABcB A2) A2 | z2 G2 A2 G2 | (F3 G A2) F2 | %40
w: Herz, welchs|lei- det|Schmerz, tut all Un-|mut * * * * ver-|trei- * * * * ben,|lässt trau- rig|nie\- * * mand|
w: sein ein|har- ter|Stein, der sich nicht|liess * * * * be-|we- * * * * gen|wenn sich Ge-|sang * * tut|
w: an den|Lob- ge-|sang lasst eu- re|Stimm' * * * * er-|kling- * * * * en|und hört nicht|auf * * zu|
 (E4 D4) | E8 |] %42
w: blei\- *|ben.|
w: re\- *|gen.|
w: sing\- *|en.|
V:3
 z8 | z8 | z8 | G4 G2 G2 | c4 G4 |[M:2/2][K:treble-8] (A3 B c4- | c2 BA B2) B2 | c2 e2 c3 d | %8
w: |||Mu- si- ca,|die ganz|lieb\- * *|* * * * lich|Kunst, ist eh- ren-|
w: |||Viel ed- ler|Kraft sie|mit * *|* * * * sich|bringt, da- von wir|
w: |||Drum wol- len|wir mit|hel\- * *|* * * * ler|Stimm, Frau Mu si-|
 e2 e2 (f2 ed | e4) d2 f2 | e2 e2 f2 d2 | c4 d2 d2 | e2 d2 c2 d2 | (AB c2- cB A2 | B2 c4 B2) | c8 | %16
w: wert zu hal\- * *|* ten, ist|eh- ren- wert zu|hal- ten, ist|eh- ren- wert zu|hal\- * * * * *||ten,|
w: al- le zeu\- * *|* gen, da-|von wir al- le|zeu- gen, da-|von wir al- le|zeu\- * * * * *||gen,|
w: ca stets prei\- * *|* sen, Frau|Mu- si- ca stets|prei- sen, Frau|Mu- si- ca stets|prei\- * * * * *||sen,|
 z8 | z8 | z8 | G4 G2 G2 | c4 G4 | (A3 B c4- | c2 BA B2) B2 | c2 e2 c3 d | e2 e2 (f2 ed | %25
w: |||hat bil- lig|al- lent-|hal\- * *|* * * * ben|Gunst, bei Jun- gen|und bei Al\- * *|
w: |||ihr Lieb- lich-|keit durchs|Her\- * *|* * * * ze|dringt wer könnt ihr|Lob ver- schwei\- * *|
w: |||sie wird ge-|wiss- lich|im\- * *|* * * * mer-|dar, uns ih- re|Gunst er- wei\- * *|
 e4) d2 f2 | e2 e2 f2 d2 | c4 d2 d2 | e2 d2 c2 d2 | (AB c2- cB A2 | B2 c4 B2) | c8 || %32
w: * ten, bei|Jun- gen und bei|Al- ten, bei|Jun- gen und bei|Al\- * * * * *||ten,|
w: * gen, wer|könnt ihr Lob ver-|schwei- gen, wer|könnt ihr Lob ver-|schwei\- * * * * *||gen,|
w: * sen, uns|ih- re Gunst er-|wei- sen, uns|ih- re Gunst er-|wei\- * * * * *||sen.|
[M:3/4] e2 e2 e2 | d4 c2 ||[M:2/2] B4 A4 | B2 d2 d2 d2 | (dcBc d2) e2 | (^f2 g4 f2) | g2 e2 e3 d | %39
w: Sie frischt das|Herz, welchs|lei- det|Schmerz, tut all Un-|mut * * * * ver-|trei\- * *|ben, lässt trau- rig|
w: Es müsst doch|sein ein|har- ter|Stein, der sich nicht|liess * * * * be-|we\- * *|gen wenn sich Ge-|
w: Stimmt an, stimmt|an den|Lob- ge-|sang lasst eu- re|Stimm' * * * * er-|kling\- * *|en und hört nicht|
 c6 d2 | (BG c4 B2) | c8 |] %42
w: nie- mand|blei\- * * *|ben.|
w: sang tut|re\- * * *|gen.|
w: auf zu|sing\- * * *|en!|
V:4
 z8 | z8 | z8 | z8 | C,4 C,2 C,2 |[M:2/2] F,4 C,4 | G,6 G,2 | C,8 | z2 C2 A,3 B, | C4 D4 | %10
w: ||||Mu- si- ca,|die ganz|lieb- lich|Kunst,|ist eh- ren-|wert zu|
w: ||||Viel ed- ler|Kraft sie|mit sich|bringt,|da- von wir|al- le|
w: ||||Drum wol- len|wir mit|hel- ler|Stimm,|Frau Mu- si-|ca stets|
 (CB,A,G, F,2 G,2 | A,4) G,4 | z2 G,2 A,2 G,2 | F,2 E,2 (F,G,A,F, | G,8) | C,8 | z8 | z8 | z8 | %19
w: hal\- * * * * *|* ten,|ist eh- ren-|wert zu hal\- * * *||ten,||||
w: zeu\- * * * * *|* gen,|da- von wir|al- le zeu\- * * *||gen,||||
w: prei\- * * * * *|* sen,|Frau Mu- si-|ca stets prei\- * * *||sen,||||
 z8 | C,4 C,2 C,2 | F,4 C,4 | G,6 G,2 | C,8 | z2 C2 A,3 B, | C4 D4 | (CB,A,G, F,2 G,2 | A,4) G,4 | %28
w: |hat bil- lig|al- lent-|hal- ben|Gunst,|bei Jun- gen|und bei|Al\- * * * * *|* ten,|
w: |ihr Lieb- lich-|keit durchs|Her- ze|dringt|wer könnt ihr|Lob ver-|schwei\- * * * * *|* gen,|
w: |sie wird ge-|wiss- lich|im- mer-|dar,|uns ih- re|Gunst er-|wei\- * * * * *|* sen,|
 z2 G,2 A,2 G,2 | F,2 E,2 (F,G,A,F, | G,8 | C,8 ||[M:3/4] C2 C2 C2 | G,4 A,2 ||[M:2/2] E,4 F,4 | %35
w: bei Jun- gen|und bei Al\- * * *||ten,|Sie frischt das|Herz, welchs|lei- det|
w: wer könnt ihr|Lob ver- schwei\- * * *||gen,|Es müsst doch|sein ein|har- ter|
w: uns ih- re|Gunst er- wei\- * * *||sen.|Stimmt an, stimmt|an den|Lob- ge-|
 E,2 D,2 G,2 G,2 | G,6 F,E,) | (D,2 C,2 D,4) | G,2 C2 A,2 E,2 | F,6 D,2 | (E,3 F, G,4) | C,8 |] %42
w: Schmerz, tut all Un-|mut ver\- *|trei\- * *|ben, lässt trau- rig|nie- mand|blei\- * *|ben.|
w: Stein, der sich nicht|liess be\- *|we\- * *|gen wenn sich Ge-|sang tut|re\- * *|gen.|
w: sang lasst eu- re|Stimm' er\- *|kling\- * *|en und hört nicht|auf zu|sing\- * *|en!|

